X:917
T:Crossing to Ireland
R:Waltz
O:Scotland
B:The Waltz Book
B:Fraser's "Airs and Melodies..." n95
S:Fraser's "Airs and Melodies..." n95
Z:Transcription, minor arr., chords:Mike Long
M:3/4
L:1/4
K:G
E/F/|\
"Em"G<EE|B,<EE|G,<EE|B>AG|\
"D"F<DD|A,<DD|F<DD|A>GF|
"Em"G<EE|B,<EE|G,<EE|B>AF|\
"G"G(G/A/B/^c/)|"Bm"d>cB|"D".A.G.F|"Em"E2:|
(e/f/)|\
"Em"g<ee|B<ee|G.E.E|E2 a/g/|\
"D"f.d.d|A.d.d|F.D.D|D2 (e/f/)|\
"Em"g<ee|B<ee|GEg|
"Bm"f2e|\
"G"G(G/A/B/^c/)|"Bm"d>cB|"D".A.G.F|"Em"E z b/a/|\
"Em"gee|Bee|.E.G.B|.e/.f/.g/.a/ .b|\
"D"f.d.d|
A.d.d|.D.F.A|"Bm".d/.e/.f/.g/ a|\
"Em"g2 (f/e/)|"B/F#m"f2 (e/^d/)|"G"(e=d).B|"D"AGF|\
"G"G(G/A/B/^c/)|"Bm"d>cB|"D".A.G.F|"Em"E2|]
